X: 756
T: Da yandai
L: 1/16
M: 2/4
K: C
e2 e d c2 d c [I:setbarnb 1]| 
A2 c2G4 | 
e2 e d c2 A c | 
D8 | 
e2 e d c2 d c | 
A2 c2G4 | 
A A A G E2 G E | 
D8 | 
d2> c2G4 | 
A2> c2G4 | 
E2 D E G2 A2 | 
z2 e2 d2 z2 |]

@@@ Tune index: 9630
